images/logo.svg

<svg viewBox="0 0 290.17 146.63" xmlns="http://www.w3.org/2000/svg"><path d="m95.09 122.02 20.5-93.84 5.86 1.28-17.51 80.17 78.02-47.37 3.12 5.13z"/><path d="m254.64 146.63-148.85-66.57 2.45-5.48 11.83 5.29 16.82-79.87zm-129-64.25 108.76 48.62-94.25-117.36z"/><path d="m35.81 17.61a12.8 12.8 0 0 1 1.83 6.77 12.22 12.22 0 0 1 -1.83 6.51 13.07 13.07 0 0 1 -5.08 4.72 12.81 12.81 0 0 1 6.34 4.75 12.66 12.66 0 0 1 2.52 7.64 13.39 13.39 0 0 1 -1.87 6.91 13.13 13.13 0 0 1 -5 4.9 13.34 13.34 0 0 1 -3.53 1.3 25.41 25.41 0 0 1 -5.18.43h-21.01v-50.12h20a16.68 16.68 0 0 1 7.56 1.44 12.73 12.73 0 0 1 5.25 4.75zm-2.27 12.17a10.1 10.1 0 0 0 1.51-5.4 9.86 9.86 0 0 0 -1.73-5.8 10.17 10.17 0 0 0 -4.39-3.64 19 19 0 0 0 -6.77-.86h-16.56v20.59h17.86a13.09 13.09 0 0 0 6-1.15 10 10 0 0 0 4.08-3.74zm1.87 24a11.15 11.15 0 0 0 -.07-11.59 10.23 10.23 0 0 0 -4.46-3.93 14.05 14.05 0 0 0 -5.84-1h-19.44v21.68h18.51a25.6 25.6 0 0 0 4.32-.29 9.84 9.84 0 0 0 2.73-.87 10.39 10.39 0 0 0 4.25-3.99z"/><path d="m24 63h-22.49v-53.08h21.49a18.25 18.25 0 0 1 8.24 1.6 14.14 14.14 0 0 1 5.82 5.31 14.33 14.33 0 0 1 2 7.55 13.81 13.81 0 0 1 -2 7.3 14.27 14.27 0 0 1 -3.28 3.69 14.76 14.76 0 0 1 4.47 4.11 14.19 14.19 0 0 1 2.84 8.52 14.91 14.91 0 0 1 -2.09 7.67 14.72 14.72 0 0 1 -5.53 5.44 15 15 0 0 1 -3.94 1.45 26.18 26.18 0 0 1 -5.53.44zm-16.9-5.56h17a23.37 23.37 0 0 0 4.05-.27 8.41 8.41 0 0 0 2.33-.73 8.83 8.83 0 0 0 3.65-3.44 9.33 9.33 0 0 0 1.37-4.95 9.21 9.21 0 0 0 -1.43-5.05 8.77 8.77 0 0 0 -3.82-3.37 12.79 12.79 0 0 0 -5.25-.87h-17.9zm0-24.27h16.36a11.82 11.82 0 0 0 5.29-1 8.49 8.49 0 0 0 3.51-3.17 8.51 8.51 0 0 0 1.29-4.61 8.35 8.35 0 0 0 -1.46-4.94 8.63 8.63 0 0 0 -3.75-3.12c-.79-.34-2.5-.74-6.18-.74h-15.06z"/><path d="m11.62 93.85a14.69 14.69 0 0 1 -6-4 9.72 9.72 0 0 1 -2.2-6.59 12.52 12.52 0 0 1 2.2-7.34 14.14 14.14 0 0 1 6.14-4.92 23.16 23.16 0 0 1 9.24-1.74 20.17 20.17 0 0 1 9.25 2.13 16.53 16.53 0 0 1 6.66 5.94 15.71 15.71 0 0 1 2.46 8.67h-2.66a13.55 13.55 0 0 0 -2.09-7.49 13.82 13.82 0 0 0 -5.69-5 17.85 17.85 0 0 0 -8-1.77 21.1 21.1 0 0 0 -7.26 1.26 12.62 12.62 0 0 0 -5.51 3.74 9.47 9.47 0 0 0 -2.16 6.35 7.55 7.55 0 0 0 2 5.51 13.11 13.11 0 0 0 5.26 3.13 84.81 84.81 0 0 0 9.12 2.27 82.26 82.26 0 0 1 9.18 2.34 12.71 12.71 0 0 1 5.54 3.71c1.52 1.73 2.27 4.15 2.27 7.27a12.49 12.49 0 0 1 -2.48 7.88 14.87 14.87 0 0 1 -6.59 4.8 24.52 24.52 0 0 1 -8.93 1.59 23.63 23.63 0 0 1 -10.51-2.23 16.15 16.15 0 0 1 -6.95-6.31 17.88 17.88 0 0 1 -2.41-9.32h2.66a15.46 15.46 0 0 0 2.06 8.06 13.63 13.63 0 0 0 5.94 5.37 20.71 20.71 0 0 0 9.21 1.91 18.18 18.18 0 0 0 11-3.17 10.1 10.1 0 0 0 4.36-8.64 8.18 8.18 0 0 0 -1.87-5.76 10.75 10.75 0 0 0 -4.72-2.92q-2.85-.9-8.53-2a61.72 61.72 0 0 1 -9.99-2.73z"/><path d="m21.37 123.11a25 25 0 0 1 -11.17-2.39 17.66 17.66 0 0 1 -7.58-6.88 19.48 19.48 0 0 1 -2.62-10.09v-1.5h5.66v1.5a14 14 0 0 0 1.85 7.3 12.25 12.25 0 0 0 5.31 4.78 19.24 19.24 0 0 0 8.55 1.76 16.83 16.83 0 0 0 10.1-2.88 8.62 8.62 0 0 0 3.74-7.43 6.81 6.81 0 0 0 -1.47-4.74 9.42 9.42 0 0 0 -4.07-2.54c-1.84-.58-4.66-1.26-8.38-2a65 65 0 0 1 -10.21-2.77 16.33 16.33 0 0 1 -6.65-4.43 11.24 11.24 0 0 1 -2.56-7.57 14.08 14.08 0 0 1 2.47-8.23 15.72 15.72 0 0 1 6.82-5.42 24.93 24.93 0 0 1 9.84-1.82 21.81 21.81 0 0 1 9.93 2.29 18.25 18.25 0 0 1 7.25 6.47 17.34 17.34 0 0 1 2.69 9.48v1.5h-5.66v-1.5a12.1 12.1 0 0 0 -1.85-6.68 12.37 12.37 0 0 0 -5.09-4.47 16.63 16.63 0 0 0 -7.33-1.61 19.9 19.9 0 0 0 -6.76 1.14 11.15 11.15 0 0 0 -4.87 3.3 8 8 0 0 0 -1.77 5.37 6 6 0 0 0 1.58 4.45 11.56 11.56 0 0 0 4.66 2.76 84.17 84.17 0 0 0 8.91 2.26 83.49 83.49 0 0 1 9.31 2.48 14.22 14.22 0 0 1 6.19 4.14c1.75 2 2.64 4.78 2.64 8.26a14 14 0 0 1 -2.8 8.8 16.39 16.39 0 0 1 -7.23 5.27 26.16 26.16 0 0 1 -9.43 1.64z"/><path d="m196.71 52.16a18.09 18.09 0 0 0 6.48 6.41 17.21 17.21 0 0 0 8.81 2.37 19.77 19.77 0 0 0 8.87-1.94 15.49 15.49 0 0 0 6.23-5.4 14.35 14.35 0 0 0 2.34-7.78h2.56a16.31 16.31 0 0 1 -2.63 9 18.29 18.29 0 0 1 -7.2 6.41 22 22 0 0 1 -10.17 2.38 19.82 19.82 0 0 1 -10.15-2.74 20.33 20.33 0 0 1 -7.41-7.38 19.5 19.5 0 0 1 -2.74-10.11v-11.81a19.79 19.79 0 0 1 2.7-10.12 20.37 20.37 0 0 1 7.34-7.38 19.63 19.63 0 0 1 10.12-2.73 21.92 21.92 0 0 1 10.14 2.34 18.64 18.64 0 0 1 7.23 6.4 16.14 16.14 0 0 1 2.66 9h-2.59a14.15 14.15 0 0 0 -2.37-7.78 15.83 15.83 0 0 0 -6.23-5.4 19.7 19.7 0 0 0 -8.83-1.9 17 17 0 0 0 -8.79 2.38 17.85 17.85 0 0 0 -6.4 6.4 17 17 0 0 0 -2.38 8.79v11.81a16.79 16.79 0 0 0 2.41 8.78z"/><path d="m212 65.11a21.36 21.36 0 0 1 -10.91-2.94 22 22 0 0 1 -7.95-7.92 21.14 21.14 0 0 1 -2.94-10.87v-11.81a21.39 21.39 0 0 1 2.9-10.87 21.84 21.84 0 0 1 7.9-7.92 21.2 21.2 0 0 1 10.88-2.94 23.49 23.49 0 0 1 10.8 2.5 20.16 20.16 0 0 1 7.81 6.92 17.71 17.71 0 0 1 2.9 9.86v1.5h-5.56v-1.48a12.45 12.45 0 0 0 -2.12-7 14.18 14.18 0 0 0 -5.71-4.85 18.14 18.14 0 0 0 -8.15-1.79 15.57 15.57 0 0 0 -8 2.17 16.38 16.38 0 0 0 -5.85 5.87 15.63 15.63 0 0 0 -2.17 8v11.84a15.4 15.4 0 0 0 2.2 8 16.68 16.68 0 0 0 5.97 5.89 15.79 15.79 0 0 0 8 2.17 18.42 18.42 0 0 0 8.2-1.79 14 14 0 0 0 5.63-4.87 12.76 12.76 0 0 0 2.1-7v-1.48h5.57v1.5a17.87 17.87 0 0 1 -2.87 9.85 19.74 19.74 0 0 1 -7.78 6.93 23.51 23.51 0 0 1 -10.85 2.53z"/><path d="m248.73 12.42v33.91l34-33.91h3.74l-20.96 20.88 20.88 29.23h-3.17l-19.58-27.36-14.91 14.9v12.46h-2.66v-50.11z"/><path d="m289.3 64.03h-6.85l-19-26.55-13.22 13.21v13.34h-5.66v-53.11h5.66v31.79l31.87-31.79h7.99l-22.62 22.54z"/><path d="m284.19 79.05a16.25 16.25 0 0 1 2.48 8.78 16.49 16.49 0 0 1 -12.17 15.91l12.75 17.79h-3.17l-12.31-17.28-2.31.07h-18.07v17.21h-2.66v-50.11h19.07a32.57 32.57 0 0 1 5.44.39 16.83 16.83 0 0 1 4.14 1.26 15.76 15.76 0 0 1 6.81 5.98zm-14 22.6a13.3 13.3 0 0 0 6.91-1.87 13.92 13.92 0 0 0 5-5 13.3 13.3 0 0 0 1.9-6.95 13.64 13.64 0 0 0 -2.19-7.56 13.35 13.35 0 0 0 -6.08-5 21.62 21.62 0 0 0 -7.93-1.15h-16.41v27.57z"/><path d="m290.17 123h-6.87l-12.3-17.23h-1.5-16.61v17.23h-5.66v-53.08h20.57a34.71 34.71 0 0 1 5.7.41 18.28 18.28 0 0 1 4.5 1.38 17.21 17.21 0 0 1 7.45 6.54 17.76 17.76 0 0 1 2.71 9.58 18 18 0 0 1 -11.26 16.69zm-37.28-22.88h17.29a11.76 11.76 0 0 0 6.15-1.66 12.66 12.66 0 0 0 4.51-4.46 12.43 12.43 0 0 0 -.29-12.89 11.72 11.72 0 0 0 -5.41-4.48 20.41 20.41 0 0 0 -7.34-1h-14.91z"/><path d="m89.74 70.36v2.64h-18.94v47.45h-2.59v-47.45h-18.93v-2.64z"/><path d="m72.31 121.97h-5.6v-47.45h-18.93v-5.66h43.46v5.66h-18.93z"/><path d="m54 61.47v-50.11h2.66v47.45h34.95v2.66z"/><path d="m93.11 62.97h-40.58v-53.11h5.66v47.45h34.92z"/></svg>

<svg xmlns="http://www.w3.org/2000/svg" viewBox="0 0 290.17 146.63"><title>logo</title><g id="Layer_2" data-name="Layer 2"><g id="Layer_1-2" data-name="Layer 1"><polygon points="95.09 122.02 115.59 28.18 121.45 29.46 103.94 109.63 181.96 62.26 185.08 67.39 95.09 122.02"/><path d="M254.64,146.63,105.79,80.06l2.45-5.48,11.83,5.29L136.89,0Zm-129-64.25L234.4,131,140.15,13.64Z"/><path d="M35.81,17.61a12.8,12.8,0,0,1,1.83,6.77,12.22,12.22,0,0,1-1.83,6.51,13.07,13.07,0,0,1-5.08,4.72,12.81,12.81,0,0,1,6.34,4.75A12.66,12.66,0,0,1,39.59,48a13.39,13.39,0,0,1-1.87,6.91,13.13,13.13,0,0,1-5,4.9,13.34,13.34,0,0,1-3.53,1.3,25.41,25.41,0,0,1-5.18.43H3V11.42H23a16.68,16.68,0,0,1,7.56,1.44A12.73,12.73,0,0,1,35.81,17.61ZM33.54,29.78a10.1,10.1,0,0,0,1.51-5.4,9.86,9.86,0,0,0-1.73-5.8,10.17,10.17,0,0,0-4.39-3.64,19,19,0,0,0-6.77-.86H5.6V34.67H23.46a13.09,13.09,0,0,0,6-1.15A10,10,0,0,0,33.54,29.78Zm1.87,24a11.15,11.15,0,0,0-.07-11.59,10.23,10.23,0,0,0-4.46-3.93,14.05,14.05,0,0,0-5.84-1H5.6V58.94H24.11a25.6,25.6,0,0,0,4.32-.29,9.84,9.84,0,0,0,2.73-.87A10.39,10.39,0,0,0,35.41,53.79Z"/><path d="M24,63H1.51V9.92H23a18.25,18.25,0,0,1,8.24,1.6,14.14,14.14,0,0,1,5.82,5.31h0a14.33,14.33,0,0,1,2,7.55,13.81,13.81,0,0,1-2,7.3,14.27,14.27,0,0,1-3.28,3.69,14.76,14.76,0,0,1,4.47,4.11A14.19,14.19,0,0,1,41.09,48,14.91,14.91,0,0,1,39,55.67a14.72,14.72,0,0,1-5.53,5.44,15,15,0,0,1-3.94,1.45A26.18,26.18,0,0,1,24,63ZM7.1,57.44h17a23.37,23.37,0,0,0,4.05-.27,8.41,8.41,0,0,0,2.33-.73A8.83,8.83,0,0,0,34.13,53h0a9.33,9.33,0,0,0,1.37-4.95A9.21,9.21,0,0,0,34.07,43a8.77,8.77,0,0,0-3.82-3.37A12.79,12.79,0,0,0,25,38.76H7.1Zm0-24.27H23.46a11.82,11.82,0,0,0,5.29-1A8.49,8.49,0,0,0,32.26,29h0a8.51,8.51,0,0,0,1.29-4.61,8.35,8.35,0,0,0-1.46-4.94,8.63,8.63,0,0,0-3.75-3.12c-.79-.34-2.5-.74-6.18-.74H7.1Z"/><path d="M11.62,93.85a14.69,14.69,0,0,1-6-4,9.72,9.72,0,0,1-2.2-6.59,12.52,12.52,0,0,1,2.2-7.34A14.14,14.14,0,0,1,11.76,71,23.16,23.16,0,0,1,21,69.26a20.17,20.17,0,0,1,9.25,2.13,16.53,16.53,0,0,1,6.66,5.94A15.71,15.71,0,0,1,39.37,86H36.71a13.55,13.55,0,0,0-2.09-7.49,13.82,13.82,0,0,0-5.69-5,17.85,17.85,0,0,0-8-1.77A21.1,21.1,0,0,0,13.67,73a12.62,12.62,0,0,0-5.51,3.74A9.47,9.47,0,0,0,6,83.09a7.55,7.55,0,0,0,2,5.51,13.11,13.11,0,0,0,5.26,3.13A84.81,84.81,0,0,0,22.38,94a82.26,82.26,0,0,1,9.18,2.34,12.71,12.71,0,0,1,5.54,3.71c1.52,1.73,2.27,4.15,2.27,7.27a12.49,12.49,0,0,1-2.48,7.88A14.87,14.87,0,0,1,30.3,120a24.52,24.52,0,0,1-8.93,1.59,23.63,23.63,0,0,1-10.51-2.23,16.15,16.15,0,0,1-6.95-6.31,17.88,17.88,0,0,1-2.41-9.32H4.16a15.46,15.46,0,0,0,2.06,8.06,13.63,13.63,0,0,0,5.94,5.37,20.71,20.71,0,0,0,9.21,1.91,18.18,18.18,0,0,0,11-3.17,10.1,10.1,0,0,0,4.36-8.64,8.18,8.18,0,0,0-1.87-5.76,10.75,10.75,0,0,0-4.72-2.92q-2.85-.9-8.53-2A61.72,61.72,0,0,1,11.62,93.85Z"/><path d="M21.37,123.11a25,25,0,0,1-11.17-2.39,17.66,17.66,0,0,1-7.58-6.88A19.48,19.48,0,0,1,0,103.75v-1.5H5.66v1.5a14,14,0,0,0,1.85,7.3,12.25,12.25,0,0,0,5.31,4.78,19.24,19.24,0,0,0,8.55,1.76,16.83,16.83,0,0,0,10.1-2.88,8.62,8.62,0,0,0,3.74-7.43,6.81,6.81,0,0,0-1.47-4.74A9.42,9.42,0,0,0,29.67,100c-1.84-.58-4.66-1.26-8.38-2a65,65,0,0,1-10.21-2.77A16.33,16.33,0,0,1,4.43,90.8a11.24,11.24,0,0,1-2.56-7.57A14.08,14.08,0,0,1,4.34,75a15.72,15.72,0,0,1,6.82-5.42A24.93,24.93,0,0,1,21,67.76a21.81,21.81,0,0,1,9.93,2.29,18.25,18.25,0,0,1,7.25,6.47A17.34,17.34,0,0,1,40.87,86v1.5H35.21V86a12.1,12.1,0,0,0-1.85-6.68,12.37,12.37,0,0,0-5.09-4.47,16.63,16.63,0,0,0-7.33-1.61,19.9,19.9,0,0,0-6.76,1.14,11.15,11.15,0,0,0-4.87,3.3,8,8,0,0,0-1.77,5.37,6,6,0,0,0,1.58,4.45,11.56,11.56,0,0,0,4.66,2.76,84.17,84.17,0,0,0,8.91,2.26A83.49,83.49,0,0,1,32,95a14.22,14.22,0,0,1,6.19,4.14c1.75,2,2.64,4.78,2.64,8.26a14,14,0,0,1-2.8,8.8,16.39,16.39,0,0,1-7.23,5.27A26.16,26.16,0,0,1,21.37,123.11Z"/><path d="M196.71,52.16a18.09,18.09,0,0,0,6.48,6.41A17.21,17.21,0,0,0,212,60.94,19.77,19.77,0,0,0,220.87,59a15.49,15.49,0,0,0,6.23-5.4,14.35,14.35,0,0,0,2.34-7.78H232a16.31,16.31,0,0,1-2.63,9,18.29,18.29,0,0,1-7.2,6.41A22,22,0,0,1,212,63.61a19.82,19.82,0,0,1-10.15-2.74,20.33,20.33,0,0,1-7.41-7.38,19.5,19.5,0,0,1-2.74-10.11V31.57a19.79,19.79,0,0,1,2.7-10.12,20.37,20.37,0,0,1,7.34-7.38,19.63,19.63,0,0,1,10.12-2.73A21.92,21.92,0,0,1,222,13.68a18.64,18.64,0,0,1,7.23,6.4,16.14,16.14,0,0,1,2.66,9h-2.59a14.15,14.15,0,0,0-2.37-7.78,15.83,15.83,0,0,0-6.23-5.4A19.7,19.7,0,0,0,211.87,14a17,17,0,0,0-8.79,2.38,17.85,17.85,0,0,0-6.4,6.4,17,17,0,0,0-2.38,8.79V43.38A16.79,16.79,0,0,0,196.71,52.16Z"/><path d="M212,65.11a21.36,21.36,0,0,1-10.91-2.94,22,22,0,0,1-7.95-7.92,21.14,21.14,0,0,1-2.94-10.87V31.57a21.39,21.39,0,0,1,2.9-10.87A21.84,21.84,0,0,1,201,12.78a21.2,21.2,0,0,1,10.88-2.94,23.49,23.49,0,0,1,10.8,2.5,20.16,20.16,0,0,1,7.81,6.92,17.71,17.71,0,0,1,2.9,9.86v1.5h-5.56l0-1.48a12.45,12.45,0,0,0-2.12-7A14.18,14.18,0,0,0,220,17.29a18.14,18.14,0,0,0-8.15-1.79,15.57,15.57,0,0,0-8,2.17A16.38,16.38,0,0,0,198,23.54a15.63,15.63,0,0,0-2.17,8V43.38a15.4,15.4,0,0,0,2.2,8h0A16.68,16.68,0,0,0,204,57.27,15.79,15.79,0,0,0,212,59.44a18.42,18.42,0,0,0,8.2-1.79,14,14,0,0,0,5.63-4.87,12.76,12.76,0,0,0,2.1-7l0-1.48h5.57v1.5a17.87,17.87,0,0,1-2.87,9.85,19.74,19.74,0,0,1-7.78,6.93A23.51,23.51,0,0,1,212,65.11Z"/><path d="M248.73,12.42V46.33l34-33.91h3.74L265.51,33.3l20.88,29.23h-3.17L263.64,35.17l-14.91,14.9V62.53h-2.66V12.42Z"/><polygon points="289.3 64.03 282.45 64.03 263.45 37.48 250.23 50.69 250.23 64.03 244.57 64.03 244.57 10.92 250.23 10.92 250.23 42.71 282.1 10.92 290.09 10.92 267.47 33.46 289.3 64.03"/><path d="M284.19,79.05a16.25,16.25,0,0,1,2.48,8.78,16.49,16.49,0,0,1-12.17,15.91l12.75,17.79h-3.17l-12.31-17.28-2.31.07H251.39v17.21h-2.66V71.42H267.8a32.57,32.57,0,0,1,5.44.39,16.83,16.83,0,0,1,4.14,1.26A15.76,15.76,0,0,1,284.19,79.05Zm-14,22.6a13.3,13.3,0,0,0,6.91-1.87,13.92,13.92,0,0,0,5-5A13.3,13.3,0,0,0,284,87.83a13.64,13.64,0,0,0-2.19-7.56,13.35,13.35,0,0,0-6.08-5,21.62,21.62,0,0,0-7.93-1.15H251.39v27.57Z"/><path d="M290.17,123H283.3L271,105.77l-1.5,0H252.89V123h-5.66V69.92H267.8a34.71,34.71,0,0,1,5.7.41A18.28,18.28,0,0,1,278,71.71a17.21,17.21,0,0,1,7.45,6.54h0a17.76,17.76,0,0,1,2.71,9.58,18,18,0,0,1-11.26,16.69Zm-37.28-22.88h17.29a11.76,11.76,0,0,0,6.15-1.66A12.66,12.66,0,0,0,280.84,94a12.43,12.43,0,0,0-.29-12.89,11.72,11.72,0,0,0-5.41-4.48,20.41,20.41,0,0,0-7.34-1H252.89Z"/><path d="M89.74,70.36V73H70.8v47.45H68.21V73H49.28V70.36Z"/><polygon points="72.31 121.97 66.71 121.97 66.71 74.52 47.78 74.52 47.78 68.86 91.24 68.86 91.24 74.52 72.31 74.52 72.31 121.97"/><path d="M54,61.47V11.36h2.66V58.81H91.61v2.66Z"/><polygon points="93.11 62.97 52.53 62.97 52.53 9.86 58.19 9.86 58.19 57.31 93.11 57.31 93.11 62.97"/></g></g></svg>
